X:242
T:Untied garter - Houghton
%%VWML:SBG-1-2-480-0
F:http://www.vwml.org/record/SBG/1/2/480
Z:Original Sibelius transcriptions by M. & S. Graebe
M:4/4
I:linebreak $
K:Eb
V:1 treble nm="P1"
V:1
 C | C F F E | F G A F | G F G A | B3 B | A F F E | F E/ E/ C B |$ A F E G | F3 C | F E F F | %10
 G A B G | A B c A |$ G2 |: (3C/D/E/ |"^chorus repeat" F F E D | C B, A, C | F F G A | F2 x2 :| %18
T:Untied garter - 2nd tune
F:http://www.vwml.org/record/SBG/1/2/480
Z:Original Sibelius transcriptions by M. & S. Graebe
M:4/4
I:linebreak $
K:F
V:1 treble nm="P1"
V:1
 C | A A G/F/ G | A A C B | A/G/ F E/D/ C | F2 :| F | E D ^C D |$ E E A, F | E D A G | F2 A | %10
 c A G/F/ G | A A F B | A/G/ F E/D/ E | F2 x2 | %14



